src/assets/icons/sports.svg

<svg xmlns="http://www.w3.org/2000/svg" height="48" width="48"><path d="M26.2 46.55v-12.2l-4.5-4.1-2 8.9L5.35 36.2l.75-3.9 9.95 2 3.35-16.95-4 1.95v6.9h-4.2v-9.75l8.95-3.55q1.65-.7 2.375-.925.725-.225 1.475-.225 1.15 0 2.05.55.9.55 1.5 1.5l2.2 3.35q1.25 2 3.475 3.425Q35.45 22 38.55 22v4.2q-3.45 0-6.1-1.4-2.65-1.4-4.95-4.25l-1.65 6.6 4.45 4.1v15.3Zm.9-36.8q-1.8 0-3.025-1.25-1.225-1.25-1.225-3 0-1.8 1.225-3.025Q25.3 1.25 27.1 1.25q1.75 0 2.975 1.225T31.3 5.5q0 1.75-1.225 3T27.1 9.75Z"/></svg>

<?xml version="1.0" encoding="UTF-8" standalone="no"?>
<svg
   height="48"
   width="48"
   version="1.1"
   id="svg56"
   sodipodi:docname="sports.svg"
   inkscape:version="1.2.1 (9c6d41e410, 2022-07-14)"
   xmlns:inkscape="http://www.inkscape.org/namespaces/inkscape"
   xmlns:sodipodi="http://sodipodi.sourceforge.net/DTD/sodipodi-0.dtd"
   xmlns="http://www.w3.org/2000/svg"
   xmlns:svg="http://www.w3.org/2000/svg">
  <defs
     id="defs60" />
  <sodipodi:namedview
     id="namedview58"
     pagecolor="#505050"
     bordercolor="#eeeeee"
     borderopacity="1"
     inkscape:showpageshadow="0"
     inkscape:pageopacity="0"
     inkscape:pagecheckerboard="0"
     inkscape:deskcolor="#505050"
     showgrid="false"
     inkscape:zoom="4.9166667"
     inkscape:cx="24"
     inkscape:cy="24.101695"
     inkscape:window-width="1500"
     inkscape:window-height="930"
     inkscape:window-x="-6"
     inkscape:window-y="-6"
     inkscape:window-maximized="1"
     inkscape:current-layer="svg56" />
  <path
     id="path54"
     d="m 26.2,46.55 v -12.2 l -4.5,-4.1 -2,8.9 -14.35,-2.95 0.75,-3.9 9.95,2 3.35,-16.95 -4,1.95 v 6.9 H 11.2 V 16.45 L 20.15,12.9 Q 21.8,12.2 22.525,11.975 23.25,11.75 24,11.75 q 1.15,0 2.05,0.55 0.9,0.55 1.5,1.5 l 2.2,3.35 q 1.25,2 3.475,3.425 Q 35.45,22 38.55,22 v 4.2 q -3.45,0 -6.1,-1.4 -2.65,-1.4 -4.95,-4.25 l -1.65,6.6 4.45,4.1 v 15.3 z M 27.1,9.75 Q 25.3,9.75 24.075,8.5 22.85,7.25 22.85,5.5 22.85,3.7 24.075,2.475 25.3,1.25 27.1,1.25 q 1.75,0 2.975,1.225 Q 31.3,3.7 31.3,5.5 q 0,1.75 -1.225,3 Q 28.85,9.75 27.1,9.75 Z" />
</svg>
